svgs/light/file-code.svg

<svg xmlns="http://www.w3.org/2000/svg" viewBox="0 0 384 512"><!-- Font Awesome Pro 6.0.0-alpha2 by @fontawesome - https://fontawesome.com License - https://fontawesome.com/license (Commercial License) --><path d="M155.312 276.688C149.062 270.438 138.937 270.438 132.688 276.688L84.688 324.688C78.438 330.938 78.438 341.063 84.688 347.312L132.688 395.312C135.812 398.438 139.906 400 144 400S152.188 398.438 155.312 395.312C161.562 389.062 161.562 378.937 155.312 372.688L118.625 336L155.312 299.312C161.562 293.062 161.562 282.938 155.312 276.688ZM365.256 125.254L258.746 18.746C246.744 6.742 230.465 0 213.49 0H64C28.654 0 0 28.656 0 64V448C0 483.344 28.654 512 64 512H320C355.348 512 384 483.344 384 448V170.508C384 153.535 377.258 137.258 365.256 125.254ZM224 34.078C228.477 35.641 232.666 37.922 236.119 41.375L342.627 147.879C346.08 151.332 348.357 155.523 349.924 160H240C231.188 160 224 152.828 224 144V34.078ZM352 448C352 465.645 337.645 480 320 480H64C46.355 480 32 465.645 32 448V64C32 46.355 46.355 32 64 32H192V144C192 170.469 213.531 192 240 192H352V448ZM228.688 299.312L265.375 336L228.688 372.688C222.438 378.938 222.438 389.063 228.688 395.312C231.812 398.438 235.906 400 240 400S248.188 398.438 251.312 395.312L299.312 347.312C305.562 341.062 305.562 330.937 299.312 324.688L251.312 276.688C245.062 270.438 234.937 270.438 228.688 276.688S222.438 293.062 228.688 299.312Z"/></svg>

<svg xmlns="http://www.w3.org/2000/svg" viewBox="0 0 384 512"><!--! Font Awesome Pro 6.4.0 by @fontawesome - https://fontawesome.com License - https://fontawesome.com/license (Commercial License) Copyright 2023 Fonticons, Inc. --><path d="M320 480H64c-17.7 0-32-14.3-32-32V64c0-17.7 14.3-32 32-32H192V144c0 26.5 21.5 48 48 48H352V448c0 17.7-14.3 32-32 32zM240 160c-8.8 0-16-7.2-16-16V32.5c2.8 .7 5.4 2.1 7.4 4.2L347.3 152.6c2.1 2.1 3.5 4.6 4.2 7.4H240zM64 0C28.7 0 0 28.7 0 64V448c0 35.3 28.7 64 64 64H320c35.3 0 64-28.7 64-64V163.9c0-12.7-5.1-24.9-14.1-33.9L254.1 14.1c-9-9-21.2-14.1-33.9-14.1H64zm91.3 299.3c6.2-6.2 6.2-16.4 0-22.6s-16.4-6.2-22.6 0l-48 48c-6.2 6.2-6.2 16.4 0 22.6l48 48c6.2 6.2 16.4 6.2 22.6 0s6.2-16.4 0-22.6L118.6 336l36.7-36.7zm144 25.4l-48-48c-6.2-6.2-16.4-6.2-22.6 0s-6.2 16.4 0 22.6L265.4 336l-36.7 36.7c-6.2 6.2-6.2 16.4 0 22.6s16.4 6.2 22.6 0l48-48c6.2-6.2 6.2-16.4 0-22.6z"/></svg>
